dist/assets/img/questions/1/backdrop_1200.svg

<svg width="725" height="342" viewBox="0 0 725 342" fill="none" xmlns="http://www.w3.org/2000/svg">
<g filter="url(#filter0_di_1419_48618)">
<path fill-rule="evenodd" clip-rule="evenodd" d="M266.767 285.159C161.629 269.676 32.5814 227.803 40.3332 144.449C48.4399 57.2788 131.52 40.3739 239.599 31.5941C334.927 23.8501 427.948 28.5441 521.575 46.416C577.876 57.163 646 96.1693 646 161.762C646 167.131 649.479 172.107 654.638 173.595C664.928 176.562 675.866 181.735 684.792 190.501C684.909 190.616 684.808 190.813 684.646 190.784C672.477 188.615 658.819 186.182 646.059 188.945C640.79 190.086 636.816 194.081 633.723 198.497C583.224 270.596 388.461 303.08 266.767 285.159Z" fill="white"/>
</g>
<defs>
<filter id="filter0_di_1419_48618" x="0" y="0" width="724.843" height="342" filterUnits="userSpaceOnUse" color-interpolation-filters="sRGB">
<feFlood flood-opacity="0" result="BackgroundImageFix"/>
<feColorMatrix in="SourceAlpha" type="matrix" values="0 0 0 0 0 0 0 0 0 0 0 0 0 0 0 0 0 0 127 0" result="hardAlpha"/>
<feOffset dy="12"/>
<feGaussianBlur stdDeviation="20"/>
<feComposite in2="hardAlpha" operator="out"/>
<feColorMatrix type="matrix" values="0 0 0 0 0.909804 0 0 0 0 0.313726 0 0 0 0 0.470588 0 0 0 1 0"/>
<feBlend mode="normal" in2="BackgroundImageFix" result="effect1_dropShadow_1419_48618"/>
<feBlend mode="normal" in="SourceGraphic" in2="effect1_dropShadow_1419_48618" result="shape"/>
<feColorMatrix in="SourceAlpha" type="matrix" values="0 0 0 0 0 0 0 0 0 0 0 0 0 0 0 0 0 0 127 0" result="hardAlpha"/>
<feOffset dy="-4"/>
<feGaussianBlur stdDeviation="4"/>
<feComposite in2="hardAlpha" operator="arithmetic" k2="-1" k3="1"/>
<feColorMatrix type="matrix" values="0 0 0 0 0.909804 0 0 0 0 0.313726 0 0 0 0 0.470588 0 0 0 0.48 0"/>
<feBlend mode="normal" in2="shape" result="effect2_innerShadow_1419_48618"/>
</filter>
</defs>
</svg>

<svg width="725" height="342" viewBox="0 0 725 342" fill="none" xmlns="http://www.w3.org/2000/svg"><g filter="url(#filter0_di_1419_48618)"><path fill-rule="evenodd" clip-rule="evenodd" d="M266.767 285.159c-105.138-15.483-234.186-57.356-226.434-140.71C48.44 57.279 131.52 40.374 239.6 31.594c95.328-7.744 188.349-3.05 281.976 14.822C577.876 57.163 646 96.169 646 161.762c0 5.369 3.479 10.345 8.638 11.833 10.29 2.967 21.228 8.14 30.154 16.906a.167.167 0 01-.146.283c-12.169-2.169-25.827-4.602-38.587-1.839-5.269 1.141-9.243 5.136-12.336 9.552-50.499 72.099-245.262 104.583-366.956 86.662z" fill="#fff"/></g><defs><filter id="filter0_di_1419_48618" x="0" y="0" width="724.843" height="342" filterUnits="userSpaceOnUse" color-interpolation-filters="sRGB"><feFlood flood-opacity="0" result="BackgroundImageFix"/><feColorMatrix in="SourceAlpha" values="0 0 0 0 0 0 0 0 0 0 0 0 0 0 0 0 0 0 127 0" result="hardAlpha"/><feOffset dy="12"/><feGaussianBlur stdDeviation="20"/><feComposite in2="hardAlpha" operator="out"/><feColorMatrix values="0 0 0 0 0.909804 0 0 0 0 0.313726 0 0 0 0 0.470588 0 0 0 1 0"/><feBlend in2="BackgroundImageFix" result="effect1_dropShadow_1419_48618"/><feBlend in="SourceGraphic" in2="effect1_dropShadow_1419_48618" result="shape"/><feColorMatrix in="SourceAlpha" values="0 0 0 0 0 0 0 0 0 0 0 0 0 0 0 0 0 0 127 0" result="hardAlpha"/><feOffset dy="-4"/><feGaussianBlur stdDeviation="4"/><feComposite in2="hardAlpha" operator="arithmetic" k2="-1" k3="1"/><feColorMatrix values="0 0 0 0 0.909804 0 0 0 0 0.313726 0 0 0 0 0.470588 0 0 0 0.48 0"/><feBlend in2="shape" result="effect2_innerShadow_1419_48618"/></filter></defs></svg>
